public/images/logo/netlify-dark.svg

<svg fill="none" height="105" viewBox="0 0 256 105" width="256" xmlns="http://www.w3.org/2000/svg" xmlns:xlink="http://www.w3.org/1999/xlink"><clipPath id="a"><path d="m0 0h256v104.311h-256z"/></clipPath><g clip-path="url(#a)"><path d="m58.4704 103.765v-26.3506l.5461-.5461h6.5878l.5461.5461v26.3506l-.5461.546h-6.5878z" fill="#32e6e2"/><path d="m58.4704 26.8971v-26.350967l.5461-.546133h6.5878l.5461.546133v26.350967l-.5461.5461h-6.5878z" fill="#32e6e2"/><path d="m35.7973 85.2395h-.9045l-4.5312-4.5312v-.9046l8.4907-8.4992 4.7957.0086.64.6314v4.7958z" fill="#32e6e2"/><path d="m30.3616 24.7467v-.9131l4.5312-4.5227h.9045l8.4907 8.4907v4.7872l-.64.6485h-4.7957z" fill="#32e6e2"/><path d="m.546133 48.3072h37.333367l.5461.5461v6.5963l-.5461.5462h-37.333367l-.546133-.5462v-6.5963z" fill="#32e6e2"/><path d="m255.445 48.3157.546.5462v6.5877l-.546.5461h-37.879l-.546-.5461 2.739-6.5877.546-.5462z" fill="#32e6e2"/><g fill="#fff"><path d="m74.6667 65.8859h-6.5878l-.5461-.5462v-15.4197c0-2.7477-1.0752-4.8725-4.3861-4.9408-1.7067-.0427-3.6523 0-5.7344.0853l-.3158.3158v19.9509l-.5461.5461h-6.5877l-.5462-.5461v-26.3509l.5462-.5462h14.8224c5.76 0 10.4277 4.6678 10.4277 10.4278v16.4693l-.5461.5461z"/><path d="m106.573 54.3488-.546.5461h-17.0329l-.5461.5462c0 1.1008 1.1008 4.3946 5.4955 4.3946 1.6469 0 3.2938-.5461 3.8485-1.6469l.5461-.5461h6.5879l.546.5461c-.546 3.2939-3.294 8.2432-11.5371 8.2432-9.3354 0-13.7301-6.5877-13.7301-14.2848s4.3947-14.2848 13.184-14.2848c8.7892 0 13.1842 6.5877 13.1842 14.2848zm-8.2434-5.4955c0-.5461-.5461-4.3946-4.9408-4.3946s-4.9408 3.8485-4.9408 4.3946l.5461.5462h8.7894z"/><path d="m121.95 57.6427c0 1.1008.546 1.6469 1.647 1.6469h4.941l.546.5462v5.4954l-.546.5461h-4.941c-4.941 0-9.336-2.2015-9.336-8.2431v-12.0833l-.546-.5461h-3.848l-.546-.5461v-5.4955l.546-.5461h3.848l.546-.5462v-4.9408l.546-.5461h6.588l.546.5461v4.9408l.546.5462h6.042l.546.5461v5.4955l-.546.5461h-6.042l-.546.5461v12.0833z"/><path d="m142.276 65.8859h-6.587l-.547-.5462v-37.3589l.547-.5461h6.587l.546.5461v37.3504l-.546.5461z"/><path d="m157.107 34.0224h-6.588l-.546-.5461v-5.4955l.546-.5461h6.588l.546.5461v5.4955zm0 31.8635h-6.588l-.546-.5462v-26.368l.546-.5461h6.588l.546.5461v26.368z"/><path d="m182.929 27.9808v5.4955l-.546.5461h-4.941c-1.101 0-1.647.5461-1.647 1.6469v2.2016l.546.5462h5.496l.546.5461v5.4955l-.546.5461h-5.496l-.546.5461v19.7718l-.546.5461h-6.588l-.546-.5461v-19.7718l-.546-.5461h-3.848l-.547-.5461v-5.4955l.547-.5461h3.848l.546-.5462v-2.2016c0-6.0416 4.395-8.2432 9.336-8.2432h4.94l.547.5462z"/><path d="m203.247 66.432c-2.202 5.4955-4.395 8.7893-12.083 8.7893h-2.748l-.546-.5461v-5.4955l.546-.5461h2.748c2.747 0 3.294-.5461 3.848-2.1931v-.5461l-8.789-21.4272v-5.4955l.546-.5461h4.941l.546.5461 6.588 18.6795h.546l6.588-18.6795.546-.5461h4.941l.546.5461v5.4955l-8.79 21.9733z"/></g></g></svg>

<svg width="256" height="105" viewBox="0 0 256 105" fill="none" xmlns="http://www.w3.org/2000/svg">
<g clip-path="url(#clip0_236_43)">
<path d="M58.4704 103.765V77.4144L59.0165 76.8683H65.6043L66.1504 77.4144V103.765L65.6043 104.311H59.0165L58.4704 103.765Z" fill="#32E6E2"/>
<path d="M58.4704 26.8971V0.546133L59.0165 0H65.6043L66.1504 0.546133V26.8971L65.6043 27.4432H59.0165L58.4704 26.8971Z" fill="#32E6E2"/>
<path d="M35.7973 85.2395H34.8928L30.3616 80.7083V79.8037L38.8523 71.3045L43.648 71.3131L44.288 71.9445V76.7403L35.7973 85.2395Z" fill="#32E6E2"/>
<path d="M30.3616 24.7467V23.8336L34.8928 19.3109H35.7973L44.288 27.8016V32.5888L43.648 33.2373H38.8523L30.3616 24.7467Z" fill="#32E6E2"/>
<path d="M0.546133 48.3072H37.8795L38.4256 48.8533V55.4496L37.8795 55.9958H0.546133L0 55.4496V48.8533L0.546133 48.3072Z" fill="#32E6E2"/>
<path d="M255.445 48.3157L255.991 48.8619V55.4496L255.445 55.9957H217.566L217.02 55.4496L219.759 48.8619L220.305 48.3157H255.445Z" fill="#32E6E2"/>
<path d="M74.6667 65.8859H68.0789L67.5328 65.3397V49.92C67.5328 47.1723 66.4576 45.0475 63.1467 44.9792C61.44 44.9365 59.4944 44.9792 57.4123 45.0645L57.0965 45.3803V65.3312L56.5504 65.8773H49.9627L49.4165 65.3312V38.9803L49.9627 38.4341H64.7851C70.5451 38.4341 75.2128 43.1019 75.2128 48.8619V65.3312L74.6667 65.8773V65.8859Z" fill="white"/>
<path d="M106.573 54.3488L106.027 54.8949H88.9941L88.448 55.4411C88.448 56.5419 89.5488 59.8357 93.9435 59.8357C95.5904 59.8357 97.2373 59.2896 97.792 58.1888L98.3381 57.6427H104.926L105.472 58.1888C104.926 61.4827 102.178 66.432 93.9349 66.432C84.5995 66.432 80.2048 59.8443 80.2048 52.1472C80.2048 44.4501 84.5995 37.8624 93.3888 37.8624C102.178 37.8624 106.573 44.4501 106.573 52.1472V54.3488ZM98.3296 48.8533C98.3296 48.3072 97.7835 44.4587 93.3888 44.4587C88.9941 44.4587 88.448 48.3072 88.448 48.8533L88.9941 49.3995H97.7835L98.3296 48.8533Z" fill="white"/>
<path d="M121.95 57.6427C121.95 58.7435 122.496 59.2896 123.597 59.2896H128.538L129.084 59.8358V65.3312L128.538 65.8773H123.597C118.656 65.8773 114.261 63.6758 114.261 57.6342V45.5509L113.715 45.0048H109.867L109.321 44.4587V38.9632L109.867 38.4171H113.715L114.261 37.8709V32.9301L114.807 32.384H121.395L121.941 32.9301V37.8709L122.487 38.4171H128.529L129.075 38.9632V44.4587L128.529 45.0048H122.487L121.941 45.5509V57.6342L121.95 57.6427Z" fill="white"/>
<path d="M142.276 65.8859H135.689L135.142 65.3397V27.9808L135.689 27.4347H142.276L142.822 27.9808V65.3312L142.276 65.8773V65.8859Z" fill="white"/>
<path d="M157.107 34.0224H150.519L149.973 33.4763V27.9808L150.519 27.4347H157.107L157.653 27.9808V33.4763L157.107 34.0224ZM157.107 65.8859H150.519L149.973 65.3397V38.9717L150.519 38.4256H157.107L157.653 38.9717V65.3397L157.107 65.8859Z" fill="white"/>
<path d="M182.929 27.9808V33.4763L182.383 34.0224H177.442C176.341 34.0224 175.795 34.5685 175.795 35.6693V37.8709L176.341 38.4171H181.837L182.383 38.9632V44.4587L181.837 45.0048H176.341L175.795 45.5509V65.3227L175.249 65.8688H168.661L168.115 65.3227V45.5509L167.569 45.0048H163.721L163.174 44.4587V38.9632L163.721 38.4171H167.569L168.115 37.8709V35.6693C168.115 29.6277 172.51 27.4261 177.451 27.4261H182.391L182.938 27.9723L182.929 27.9808Z" fill="white"/>
<path d="M203.247 66.432C201.045 71.9275 198.852 75.2213 191.164 75.2213H188.416L187.87 74.6752V69.1797L188.416 68.6336H191.164C193.911 68.6336 194.458 68.0875 195.012 66.4405V65.8944L186.223 44.4672V38.9717L186.769 38.4256H191.71L192.256 38.9717L198.844 57.6512H199.39L205.978 38.9717L206.524 38.4256H211.465L212.011 38.9717V44.4672L203.221 66.4405L203.247 66.432Z" fill="white"/>
</g>
<defs>
<clipPath id="clip0_236_43">
<rect width="256" height="104.311" fill="white"/>
</clipPath>
</defs>
</svg>
